build/documents/VerifySignSolid.svg

<svg xmlns="http://www.w3.org/2000/svg" fill="none" viewBox="0 0 24 24" focusable="false"><path d="M0 0H24V24H0z"/><path fill="#74767B" fill-rule="evenodd" d="M19.0489 8.57782C18.486 8.94652 17.8129 9.16092 17.0897 9.16092C15.1123 9.16092 13.5093 7.55789 13.5093 5.58046C13.5093 3.60303 15.1123 2 17.0897 2C19.0672 2 20.6702 3.60303 20.6702 5.58046C20.6702 6.36496 20.4179 7.09054 19.99 7.68046L21.2889 8.98312C21.5424 9.23733 21.5418 9.64889 21.2876 9.90236C21.0334 10.1558 20.6218 10.1552 20.3683 9.90103L19.0489 8.57782ZM19.3702 5.58046C19.3702 6.83992 18.3492 7.86092 17.0897 7.86092C15.8303 7.86092 14.8093 6.83992 14.8093 5.58046C14.8093 4.321 15.8303 3.3 17.0897 3.3C18.3492 3.3 19.3702 4.321 19.3702 5.58046ZM8.75374 4.98083C8.24594 4.47303 7.42264 4.47303 6.91484 4.98082L5.75792 6.21858C5.25013 6.72638 5.25013 7.54968 5.75792 8.05748L6.87781 9.17736C7.15375 9.45331 7.60206 9.45033 7.8743 9.17073L9.89334 7.09721C10.1605 6.82283 10.1576 6.38469 9.8868 6.11389L8.75374 4.98083ZM8.78729 11.0869C8.51649 10.8161 8.51358 10.3779 8.78075 10.1035L10.7998 8.03001C11.072 7.75042 11.5203 7.74743 11.7963 8.02338L19.2285 15.4556C19.6262 15.8533 19.9041 16.3547 20.0305 16.9027L20.4301 18.6342C20.6462 19.5705 20.3476 19.9499 19.4113 19.7339L17.6798 19.3343C17.1318 19.2078 16.6303 18.9299 16.2327 18.5323L8.78729 11.0869ZM8.61604 18.8349C8.06345 19.3011 7.34271 19.9092 6.16172 19.9092C4.09019 19.9092 3.1233 18.5611 2.74189 18.0293C2.70822 17.9823 2.67911 17.9417 2.6542 17.909C2.43685 17.6233 2.49226 17.2155 2.77797 16.9981C3.06367 16.7808 3.47148 16.8362 3.68884 17.1219C3.72225 17.1658 3.75728 17.2137 3.79446 17.2646C4.17418 17.7839 4.77761 18.6092 6.16173 18.6092C6.84467 18.6092 7.24208 18.2928 7.81038 17.8138L7.83907 17.7896C8.39338 17.322 9.11618 16.7123 10.3031 16.7123C12.2831 16.7123 13.3525 18.1105 13.7645 18.6493C13.8224 18.725 13.8673 18.7837 13.8999 18.8192C14.1429 19.0835 14.1257 19.4946 13.8614 19.7376C13.5972 19.9806 13.186 19.9634 12.943 19.6992C12.8561 19.6046 12.7667 19.4936 12.6708 19.3743C12.2016 18.7911 11.5749 18.0123 10.3031 18.0123C9.61532 18.0123 9.21532 18.3297 8.64828 18.8077L8.61604 18.8349Z"/></svg>

<svg xmlns="http://www.w3.org/2000/svg" fill="none" viewBox="0 0 24 24" focusable="false"><path fill="#74767B" fill-rule="evenodd" d="M19.04 8.57c-.56.37-1.23.59-1.96.59a3.59 3.59 0 0 1-3.58-3.58 3.585 3.585 0 0 1 7.17 0c0 .78-.26 1.51-.68 2.1l1.29 1.3c.26.25.26.66 0 .92-.25.25-.66.25-.92 0zm.33-2.99c0 1.25-1.03 2.28-2.29 2.28-1.25 0-2.28-1.03-2.28-2.28 0-1.26 1.03-2.29 2.28-2.29 1.26 0 2.29 1.03 2.29 2.29m-10.62-.6c-.51-.51-1.33-.51-1.84 0L5.75 6.21c-.5.51-.5 1.33 0 1.84l1.12 1.12a.7.7 0 0 0 1 0l2.02-2.08c.27-.27.26-.71-.01-.98zm.03 6.1a.694.694 0 0 1 0-.98l2.01-2.07c.28-.28.73-.29 1-.01l7.43 7.43c.4.4.68.9.81 1.45l.4 1.73c.21.94-.09 1.32-1.02 1.1l-1.74-.4c-.54-.13-1.04-.41-1.44-.8zM6.16 19.9c1.18 0 1.9-.6 2.45-1.07l.03-.03c.57-.48.97-.79 1.66-.79 1.27 0 1.9.78 2.37 1.36.09.12.18.23.27.32a.649.649 0 1 0 .95-.88c-.03-.03-.07-.09-.13-.17-.41-.53-1.48-1.93-3.46-1.93-1.19 0-1.91.61-2.47 1.07l-.02.03c-.57.48-.97.79-1.65.79-1.39 0-1.99-.82-2.37-1.34-.04-.05-.07-.1-.11-.14a.65.65 0 0 0-.91-.13c-.28.22-.34.63-.12.91q.03.06.09.12c.38.54 1.35 1.88 3.42 1.88"/></svg>
